!!!!SEGMENT: pl-wn--mus-iii-110-038-cim--001-001_brzowska-jadwiga--le-diane-contredanses-composees-pour-le-piano-fig-1.krn
!!!cenid: 18xx:4435
!!!COM: Brzowska, Jadwiga
!!!COM-rismID: pe50052590
!!!CDT: 1830-1886
!!!CNT: Polish
!!!GTL: Le Diane: Contredanses composées pour le piano
!!!OTL: Fig. 1
!!!OMV: 001
!!!PDT: 1848
!!!AGN: Secular; Contradance
!!!YEC: Copyright 2022 Narodowy Instytut Fryderyka Chopina (https://polishscores.org)
!!!YEM: License CC-BY-4.0 (https://creativecommons.org/licenses/by/4.0)
!!!SMS-siglum: PL-Wn
!!!SMS-shelfmark: Mus.III.110.038 Cim.
!!!SMS-shelfwork: 001-001 G
!!!SMS-variant:
!!!SMS-altvar:
!!!NIFC-rismSourceID:
!!!NIFC-rismChildID:
!!!NIFC-islandoraID: none
!!!URL-pdf-islandora:
!!!URL-scan: https://polona.pl/item-view/59c5dde7-d015-4f2b-b38f-cb13e1316317?page=2
!!!IIIF:
!!!ONB-nifc: UWAGA: Fig. 1 na str. 2
!!!AIN: 1 piano
!!!key: E-
**kern	**kern	**dynam
*part1	*part1	*part1
*staff2	*staff1	*staff1/2
*>[A,B,A,C,A]	*>[A,B,A,C,A]	*
*>A	*>A	*
*I"FIG:1	*I"FIG:1	*
*mI"Pianoforte	*mI"Pianoforte	*
*I'	*I'	*
*mI'pf	*mI'pf	*
*Ipiano	*Ipiano	*
*ICklav	*ICklav	*
*clefF4	*clefG2	*
*kcancel	*kcancel	*
*k[b-e-a-]	*k[b-e-a-]	*
*E-:	*E-:	*
*M6/8	*M6/8	*
=1!|:	=1!|:	=1!|:
8.E-L 8.EE-\	8.eee-L 8.bb- 8.gg 8.ee-\	f
16e-K 16B- 16G 16E-\	16bb-K 16gg 16ee- 16b-\	.
8e-J 8B- 8G 8E-\	8bb-J 8gg 8ee- 8b-\	.
8e-L 8c 8A- 8E-\	8cccL 8aa- 8ee- 8cc\	.
8r	8ddd 8dd\	.
8e-J 8c 8A- 8E-\	8eee-J 8ccc 8aa- 8ee-\	.
=2	=2	=2
!	!	!LO:HP:a
8e-L 8B- 8G 8E-\	4.bb- 4.gg 4.ee- 4.b-\	>
8r	.	.
8e-J 8B- 8G 8E-\	.	.
8e-L 8B- 8G 8E-\	8ggL 8ee- 8b- 8g\	.
8r	8r	.
8e-J 8B- 8G 8E-\	8ggJ 8g\	]
=3	=3	=3
8B-L 8BB-\	8.ggL 8.dd 8.a-\	p
8r	.	.
.	16ff\L	.
8dJ 8B- 8A- 8F\	16een\	.
.	16ff\JJ	.
8dL 8B- 8A- 8F\	8.ggL 8.dd 8.a-\	.
8r	.	.
.	16ff\L	.
8dJ 8B- 8A- 8F\	16aa-\	.
.	16gg\JJ	.
=4	=4	=4
8e-L 8B- 8E-\	4.ee- 4.b- 4.g\	.
8r	.	.
8e-J 8B- 8E-\	.	.
.	(16qqdd/LL	.
.	16qqcc/JJ)	.
8e-L 8B- 8E-\	8b-L 8g\	.
8r	8r	.
8e-J 8B- 8E-\	8b-J 8g\	.
!!LO:LB:g=original
=5	=5	=5
!	!	!LO:DY:rj
8.E-L 8.EE-\	8.eee-L 8.bb- 8.gg 8.ee-\	f
16e-K 16B- 16G 16E-\	16bb-K 16gg 16ee- 16b-\	.
8e-J 8B- 8G 8E-\	8bb-J 8gg 8ee- 8b-\	.
8e-L 8c 8A- 8E-\	8cccL 8aa- 8ee- 8cc\	.
8r	8ddd 8dd\	.
8e-J 8c 8A- 8E-\	8eee-J 8ccc 8aa- 8ee-\	.
=6	=6	=6
8e-L 8B- 8G 8E-\	4.bb- 4.gg 4.ee- 4.b-\	.
8r	.	.
8e-J 8B- 8G 8E-\	.	.
8e-L 8B- 8G 8E-\	8ggL 8ee- 8b- 8g\	.
8r	8r	.
8e-J 8B- 8G 8E-\	8ggJ 8g\	.
=7	=7	=7
8A-L 8F 8BB-\	8.ggL 8.dd 8.a-\	.
8r	.	.
.	16ff\L	.
8dJ 8B- 8A- 8F\	16een\	.
.	16ff\JJ	.
8dL 8B- 8A- 8F\	8aa-L 8cc\	.
8r	8r	.
8dJ 8B- 8A- 8F\	16ggL 16b-\	.
.	16ffJJ 16a-\	.
=8	=8	=8
[4.e- [4.B- [>4.G [>4.E-\	[4.ee- [>4.g\	.
4e-] 4B-] 4G] 4E-\]	4ee-] 4g\]	.
!	!LO:TX:b:t=Fine:mod=	!
8r	8r	.
!!LO:TX:a:rj:B:t=:mod=Fine
!!LO:LB:g=original
=9|!	=9|!	=9|!
*>B	*>B	*
*k[b-e-]	*k[b-e-]	*
8B-L 8BB-\	[4.ddd [>4.dd\	.
8d 8B- 8F\	.	.
8dJ 8B- 8F\	.	.
8d 8B- 8F\	8ddd]L 8dd\]	.
8r	8ccc 8cc\	.
8r	8bb-J 8b-\	.
=10	=10	=10
!	!	!LO:HP:a
8B-L 8BB-\	[4.ff [>4.f\	<
8d 8B- 8F\	.	.
8dJ 8B- 8F\	.	.
8d 8B- 8F\	8ff]L 8f\]	.
8r	8gg 8g\	.
8r	8aaJ 8a\	.
=11	=11	=11
8B-L 8BB-\	8bb-L 8b-\	.
8r	8ccc 8cc\	.
8dJ 8B- 8F\	8dddJ 8dd\	.
8enL 8d-X 8B- 8G\	8eeen 8een\	[
8r	8r	.
8eJ 8d- 8B- 8G\	8ggg 8gg\	.
=12	=12	=12
8fL 8d 8B- 8F\	4.fff 4.ff\	.
8r	.	.
8fJ 8d 8B- 8F\	.	.
8fL 8d 8B- 8F\	4ddd 4dd\	.
8r	.	.
8fJ 8d 8B- 8F\	8r	.
!!LO:LB:g=original
=13	=13	=13
*	*^	*
!	!	!	!LO:DY:rj
8FL 8FF\	8ee- 8cc\	4.ryy	p
8r	8r	.	.
!	!LO:TUP:b:problem=klamra łukowa	!	!
!	!LO:SIC:s=24f\\LL	!	!
8e-J 8A\	24f/LL	.	.
!	!LO:SIC:s=24f\\	!	!
.	24f/	.	.
!	!LO:SIC:s=24f\\JJ	!	!
.	24f/JJ	.	.
8e-L 8A\	8ree	4.f/	.
8r	8ree	.	.
8e-J 8A\	16cc/LL	.	.
.	16ee-/JJ	.	.
=14	=14	=14	=14
8B-L 8BB-\	8dd 8b-\	4.ryy	.
8r	8r	.	.
!	!LO:TUP:b:problem=klamra łukowa	!	!
!	!LO:SIC:s=24f\\LL	!	!
8dJ 8B- 8F\	24f/LL	.	.
!	!LO:SIC:s=24f\\	!	!
.	24f/	.	.
!	!LO:SIC:s=24f\\JJ	!	!
.	24f/JJ	.	.
8dL 8B- 8F\	8ree	4.f\	.
8r	8ree	.	.
8dJ 8B- 8F\	16b-/LL	.	.
.	16dd/JJ	.	.
*	*v	*v	*
=15	=15	=15
8E-L 8EE-\	8cc\L	.
8r	8gg\	.
8cJ 8G 8E-\	8ff\J	.
8FL 8FF\	8ee-\L	.
8r	8g\	.
8e-J 8c 8F\	8a\J	.
=16	=16	=16
8dL 8B-\	8b-\L	.
8r	8r	.
*	*Xtuplet	*
8dJ 8B-\	24b-\L	.
.	24b-\	.
.	24b-\JJ	.
8d 8B-\	8bb-L 8b-^^\	.
8r	8ccc 8cc^^\	.
8r	8dddJ 8dd^^\	.
!!LO:LB:g=original
=:|!	=:|!	=:|!
*>C	*>C	*
*k[b-e-a-d-]	*k[b-e-a-d-]	*
!	!LO:MO:mod=!LO&colon;TX&colon;a&colon;i&colon;t=dolce	!
!	!LO:TX:b:i:t=dolce	!
8r	8ee-\	.
=17	=17	=17
8A-L 8AA-\	8ccc\L	<
8r	8r	.
8cJ 8A- 8E-\	8ccc\J	.
8cL 8A- 8En\	8ccc\L	.
.	8qeee-/	.
8r	8ddd-\	.
8cJ 8A- 8E\	8ccc\J	.
=18	=18	=18
8A-L 8AA-\	8ccc\L	.
8r	8r	.
8dnJ 8B- 8A- 8En\	8bb-\J	.
8dL 8B- 8A- 8E\	8ddn^^\L	[
8r	8r	.
8dJ 8B- 8A- 8E\	8bb-\J	>
=19	=19	=19
8E-XL 8EE-X\	8dd-X^^\L	.
8r	8r	.
8d-J 8B- 8G 8E-\	8bb-\J	.
8d-L 8B- 8G 8E-\	(8bb-L 8dd-\	.
8r	8ccc 8ee-X\	.
8d-J 8B- 8G 8E-\	8bb-J 8dd-\)	.
=20	=20	=20
8A-L 8AA-\	8bb-L 8dd-\	.
8r	8r	.
8cJ 8A- 8E-\	8aa-J 8cc\	]
4c 4A- 4E-\	4ee- 4cc\	.
8r	8ee-\	.
!!LO:LB:g=original
=21	=21	=21
8A-L 8AA-\	8ccc\L	<
8r	8r	.
8cJ 8A- 8E-\	8ccc\J	.
8cL 8A- 8En\	8ccc\L	.
.	8qeee-/	.
8r	8ddd-\	.
8cJ 8A- 8E\	8ccc\J	.
=22	=22	=22
8A-L 8AA-\	8ccc\L	.
8r	8r	.
!LO:SIC:v:s=8dJ 8B- 8A- 8E	!	!
8d-J 8B- 8A- 8En\	8bb-\J	.
!LO:SIC:v:s=8dL 8B- 8A- 8E	!	!
8d-L 8B- 8A- 8E\	8ddn^^\L	[
.	.	>
8r	8r	.
!LO:SIC:v:s=8dJ 8B- 8A- 8E	!LO:SIC:s=8bb-^^J	!
8d-J 8B- 8A- 8E\	8bb-\J	.
=23	=23	=23
8E-XL 8EE-X\	8dd-X\L	.
8r	8r	.
8d-J 8B- 8G 8E-\	8bb-\J	.
8d-L 8B- 8G 8E-\	8ddd-L 8ff\	.
8r	8r	.
8d-J 8B- 8G 8E-\	16cccL 16ee-\	.
.	16bb-JJ 16dd-\	]]
=24	=24	=24
[4.A- [>4.AA-\	[4.aa- [>4.cc\	.
4A-] 4AA-\]	4aa-] 4cc\]	.
8r	8r	.
!	!LO:TX:b:i:t=D.C al Fine:mod=	!
!!LO:TX:a:B:t=:mod=Da Capo al Fine
==	==	==
*-	*-	*-
!!!system-decoration: {(*)}
!!!RDF**kern: > = above
!!!filter-modern: sic -sq |  shed -e "s/LO:HP:(a|b|rj)/LO:hp:$1/L" | shed -e "s/Xtuplet/tuplet/I" | shed -k -e "s/[<>]//g"  | autostem -r | shed -k -e "s/LO:N:vis/LO:n:vis:/L" | shed -e "s/:rj/:RJ/L" | shed -e "s/^(\d+[\/\\]right)/$1yy/I;s/^(\d+[\/\\]left)/$1yy/I" | shed -e "s/LO:DY:(a|b|rj)/LO:dy:$1/L" | shed -e "s/-//B" | modori -m | tie -s |  humtr -p
!!!ENC: Andrzej Gręziak
!!!END: 2023-07-25
!!!EED: Andrzej Kubiczek
!!!EEV: 2023-07-26
!!!ENC-modern: Andrzej Borzym
!!!END-modern: 2023-07-28
